src/images/menu_pen.svg

<svg width="38" height="38" viewBox="0 0 38 38" fill="none" xmlns="http://www.w3.org/2000/svg">
<path fill-rule="evenodd" clip-rule="evenodd" d="M0.499685 37.7284C0.72808 38.1852 11.0059 35.6728 11.2343 35.6728C11.691 35.4444 12.833 34.0741 13.2898 33.6173C16.0305 30.8765 18.7713 28.1358 21.512 25.3951C24.2528 22.6543 26.7651 19.9136 29.7343 17.1728C31.333 15.5741 36.8145 10.321 37.7281 8.95062V8.03704C36.8145 6.43827 35.4441 5.2963 34.0738 3.92593C32.7034 2.78395 31.5614 1.41358 29.9626 0.271606H29.2775C27.2219 1.87037 26.9935 2.55556 24.938 4.38272L2.55524 26.9938C2.32684 27.2222 0.0428946 37.0432 0.499685 37.7284ZM4.83919 26.9938L11.0059 33.1605L21.0552 23.3395C22.1972 21.9691 30.4194 13.9753 30.8762 13.2901L24.7096 7.12346C24.2528 7.58025 10.0923 21.7407 7.35154 24.4815C6.66635 25.1667 5.29598 26.3086 4.83919 26.9938ZM26.0799 5.75309L32.2466 12.1482C32.9318 11.2346 35.4441 8.95062 35.9009 8.26543L29.7343 2.32716C29.0491 2.55556 26.7651 5.0679 26.0799 5.75309ZM2.78364 35.216L9.1787 34.3025C9.40709 33.8457 9.40709 34.0741 8.9503 33.6173L4.15401 29.0494L3.46882 32.0185C3.24043 32.9321 3.01203 34.0741 2.78364 35.216Z" fill="#F0F0F0"/>
</svg>

<svg xmlns="http://www.w3.org/2000/svg" width="38" height="38" fill="none" viewBox="0 0 38 38">
	<path fill="#F0F0F0" fill-rule="evenodd" d="M.5 37.728c.228.457 10.506-2.055 10.734-2.055.457-.229 1.599-1.599 2.056-2.056l8.222-8.222c2.74-2.74 5.253-5.481 8.222-8.222 1.599-1.599 7.08-6.852 7.994-8.222v-.914c-.913-1.599-2.284-2.74-3.654-4.111-1.37-1.142-2.513-2.512-4.111-3.654h-.686c-2.055 1.598-2.284 2.284-4.339 4.11L2.555 26.995C2.327 27.222.043 37.044.5 37.728zm4.34-10.734 6.166 6.166 10.05-9.82c1.141-1.37 9.363-9.365 9.82-10.05L24.71 7.123 7.352 24.482c-.686.685-2.056 1.827-2.513 2.512zm21.24-21.24 6.167 6.394c.685-.913 3.197-3.197 3.654-3.883l-6.167-5.938c-.685.229-2.969 2.74-3.654 3.426zM2.784 35.215l6.395-.913c.228-.457.228-.229-.229-.686L4.154 29.05l-.685 2.97c-.229.913-.457 2.055-.685 3.197z" clip-rule="evenodd"/>
</svg>
